X:1
T:Title
%%score { ( 1 3 4 ) | ( 2 5 ) }
L:1/8
Q:1/4=100
M:4/4
K:G
V:1 treble nm="Grand Piano"
V:3 treble 
V:4 treble 
V:2 bass 
V:5 bass 
V:1
 [B,D]>[B,D] [DB]>[DB] [CA]2 [B,G]>[DB] | [EA]2 [EG]2 [CE]3 [CE] | [B,D]2 G>B d2 G2 | A8 | %4
w: James~M.~Black * * * * * *||||
 G>B d>B A2 G>B | [EA]2 [EG]2 E3 E | D2 [Dd]>[Dd] [DB]2 [CDA]2 | [B,DG]6 z2 | %8
w: ||||
 [CEG]2 [Ec]>[Ec] [Ec]3 [Ge] | e2 d2 d3 d | e d2 G B3 B | z2 A2 z4 | B2 Bc d2 G>G | %13
w: |||||
[M:5/4] ABG-[Gd] [Ge]6 |[M:4/4] [Gd] [Gd]2 [B,G] [DGB]2 [CFA]2 | [G,B,DG]6 z2 |] %16
w: |||
V:2
 [G,,G,]>[G,,G,] [G,,G,]>[G,,G,] [G,,D,]2 [G,,D,]>[G,,G,] | [C,G,]2 [C,C]2 [C,G,]3 [C,G,] | %2
 [G,,G,]2[K:treble] [G,B,D]>[G,D] [G,B,G]2[K:bass] [G,B,D]2 | D,2 A,,2 z2 C2 | %4
 [G,B,]>[K:treble][G,DG] [G,B,G]>[G,DG] [G,CD]2 [G,B,D]>[G,DG] | [C,C]2 [C,C]2 [C,G,C]3 [C,G,C] | %6
 [B,,G,]2 [B,,G,]>[B,,G,] [D,G,]2 D,2 | G,,6 z2 | C,2 [C,G,]>[C,G,] [C,G,]3 [C,C] | %9
 [G,CG]2 [G,B,G]2 [G,B,G]3 [G,B,G] | [CG] [B,DG]2 [G,B,] [G,DG]3 [G,DG] | %11
 [A,^CE]2 .[A,CE]2 [D,D]4 | [G,DG]2 [G,DG][G,A,G] [G,B,G]2 [G,B,D]>[K:bass][G,B,D] | %13
[M:5/4] D-[=F,D]E,[D,B,] [C,C]6 |[M:4/4] [D,B,] [D,B,]2 D, D,2 D,2 | G,,6 z2 |] %16
V:3
 x8 | x8 | x8 | [DF]2 [^CG]2 F4 | x8 | x8 | x8 | x8 | x8 | x8 | x8 | A2 z G [FA]4 | x8 | %13
[M:5/4] z2 .[Cc]2 z2 z4 |[M:4/4] x8 | x8 |] %16
V:4
 x8 | x8 | x8 | z4 D2 z2 | x8 | x8 | x8 | x8 | x8 | x8 | x8 | x8 | x8 |[M:5/4] x10 |[M:4/4] x8 | %15
 x8 |] %16
V:5
 x8 | x8 | x2[K:treble] x4[K:bass] x2 | z4 D,4 | x3/2[K:treble] x13/2 | x8 | x8 | x8 | x8 | x8 | %10
 x8 | x8 | x15/2[K:bass] x/ |[M:5/4] .F,2 z2 z2 z4 |[M:4/4] x8 | x8 |] %16

